X: 1079
T: En Dro (A37)
N: page A37
N: heptatonic
M: 4/4
L: 1/8
K: A
"A" e2 ec e3 e|"Bm" f2 fe "A" c2 d2|"A"e2 ec d2 e2|"Bm"f2 fd "A"c4::
"A" A2 Ac "E" B2 A2|G2 A2 "Bm"B4|"Bm"B2 cd "A"e2 dc|"E" B2 AB "A"c4|
"A" A2 Ac "E" B2 A2|G2 A2 "Bm"B4|"Bm"B2 cd "A"e2 dc|"E" BdcB "A"A4:|
